X: 34310
T: Retour De Montaignac
R: mazurka
M: 3/4
K: Gmixolydian
dc Ac|:BG BA FA|G2 FGAB|c2 BA Bc|d2 dc Ac|
BG BA FA|G2 FGAB|c2 Ac AF|1 G2 dc Ac:|2 G6||
|:d2- d>e d2|c2 BA Bc|d2 de dB|c2 BA Bc|
d2- d>e d2|c2 BA Bc|de dc Ad|1 G6:|2 G2 dc Ac||

